X:1
T:Title
%%score { ( 1 4 ) | ( 2 3 ) }
L:1/8
M:4/4
K:Bb
V:1 treble nm="Grand Piano"
V:4 treble 
V:2 bass 
V:3 bass 
V:1
 z4 z2[Q:1/4=100] F2 | [DB]2 [DB]>[DB] [DB]2 F>F | G2 [FA]2 [FB]2 c>c | d2 B2 e2 d2 | c6 c2 | %5
 [Fd]2 [Fd]>c B2 F>F | G2 [FA]2 [GB]2 G>G | F2 B2 d2 c2 |[M:7/8] [DB]-[DB]-[DB]- [DB]3 z | %9
[M:6/8] z6 | [B,DF] [B,EG]2 [GB] [FA]2 | [B,EG][B,DF]B cdc | z c2- c3[K:bass] | %13
 [Fc] [Fd]2 [Ec] [DB]2 | [^FA] G2 B =F2 | [DB][Fd][Fc] [FB]cB |[M:2/4] A [DB]3- | [DB] z z2 |] %18
V:2
 z4 z2 F,2 | [B,,F,]2 [B,,F,]>B,, [B,,F,]2 [D,B,]>[D,B,] | %2
 [E,B,E]2 [C,C]2 [D,B,]2[K:treble] [F,A,F]>[F,A,F] | [B,F]2 [B,D]2 [A,CF]2 [B,F]2 | %4
 [F,A,F]6 [F,A,F]2 | [B,,B,]2 [B,,B,]>[F,A,E] [G,B,D]2 [D,B,]>[D,B,] | %6
 [E,B,E]2 [E,B,]2 [E,B,]2 [E,B,E]>[E,B,E] | [F,B,D]2 [F,B,D]2 [F,B,F]2 [F,A,E]2 | %8
[M:7/8] [B,,F,]-[B,,F,]-[B,,F,]- [B,,F,]3 z |[M:6/8] F, B,2 F, D,2 | .B,,3 E E2 | %11
 E,B,,[D,B,D] [F,A,E][K:treble][B,F][A,CF] | [G,C=E] [A,F]2- [A,F]3 | %13
 [C,A,] [B,,B,]2 [F,A,] [G,B,]2 | [D,B,] [E,B,E]2 [G,B,E] [B,D]2 | %15
 [B,,F,][B,,B,][C,A,] [D,B,][F,E][F,D] |[M:2/4] [F,C] [B,,F,]3- | [B,,F,] z z2 |] %18
V:3
 x8 | x8 | x6[K:treble] x2 | x8 | x8 | x8 | x8 | x8 |[M:7/8] x7 |[M:6/8] x6 | z E,2- E,3 | %11
 x4[K:treble] x2 | z .F,2 z3 | x6 | x6 | x6 |[M:2/4] x4 | x4 |] %18
V:4
 x8 | x8 | x8 | x8 | x8 | x8 | x8 | x8 |[M:7/8] x7 |[M:6/8] x6 | x6 | x6 | %12
 .B2 =E, F,[K:bass]_E,D, | x6 | x6 | x6 |[M:2/4] x4 | x4 |] %18

